X: 091
T: Major Logan's Frollick, a Strathspey
C: attr. John French (1753-1803)
R: strathspey
Q: "Slowish"
B: "John French Collection", John French ed. p.9 #1
S: http://www.heallan.com/french.asp
Z: 2012 John Chambers <jc:trillian.mit.edu>
M: C
L: 1/8
K: F
f |\
c<fa>g Tg>fa>f | c<fa>c' g>fd2 | c<fa>f Tg>faf | d<fB>d c>A [GE] :|
A |\
F>cA<c dfga | F>cAf {d}cB/A/ {A}G2 | F>cAc Bdca | f>cd>f c>AG>A |
F>cAc dfga | FcAf {d}cB/A/ {A}G2 | F>cAc Bdca | fadf | c>A G |]

%%sep 2 1 500
%%sep 1 1 500

